Apricity Icons/16/panel/QMPlay2-panel.svg

<svg xmlns="http://www.w3.org/2000/svg" width="16" height="16" version="1.1">
 <defs>
  <style id="current-color-scheme" type="text/css">
   .ColorScheme-Text { color:#dfdfdf; } .ColorScheme-Highlight { color:#4285f4; }
  </style>
 </defs>
 <path style="fill:currentColor" class="ColorScheme-Text" d="M 2.6289062 1 A 1.5912092 1.4213061 0 0 0 1 2.4199219 L 1 8 L 1 13.580078 A 1.5912092 1.4213061 0 0 0 3.3867188 14.808594 L 8.796875 12.019531 L 14.205078 9.2304688 A 1.5912092 1.4213061 0 0 0 14.205078 6.7695312 L 8.796875 3.9804688 L 3.3867188 1.1894531 A 1.5912092 1.4213061 0 0 0 2.6289062 1 z M 2.4707031 2.9667969 L 2.4785156 2.9707031 C 2.4753756 2.9691831 2.4739731 2.9704308 2.4707031 2.96875 L 2.4707031 2.9667969 z M 3 3.2402344 L 7.8789062 5.7578125 L 12.228516 8 L 7.8789062 10.242188 L 3 12.757812 L 3 8 L 3 3.2402344 z"/>
</svg>

<svg xmlns="http://www.w3.org/2000/svg" width="16" height="16"><defs><style id="current-color-scheme" type="text/css"></style></defs><path d="M2.629 1A1.591 1.421 0 0 0 1 2.42v11.16a1.591 1.421 0 0 0 2.387 1.229l5.41-2.79 5.408-2.789a1.591 1.421 0 0 0 0-2.46L8.797 3.98l-5.41-2.79A1.591 1.421 0 0 0 2.629 1zM2.47 2.967l.008.004c-.004-.002-.005 0-.008-.002v-.002zM3 3.24l4.879 2.518L12.229 8l-4.35 2.242L3 12.758V3.24z" fill="currentColor" color="#dfdfdf"/></svg>
